svg/underwear_outline.svg

<svg xmlns="http://www.w3.org/2000/svg" viewBox="0 0 24 24"><path d="M3 4c-.55 0-1 .45-1 1v5c0 5.5 4.5 10 10 10s10-4.5 10-10V5c0-.55-.45-1-1-1zm17 2v2H4V6zM4 10h16c0 .34 0 .67-.06 1A6.996 6.996 0 0 0 13 17.94c-.33.06-.66.06-1 .06s-.67 0-1-.06A6.996 6.996 0 0 0 4.06 11C4 10.67 4 10.34 4 10m11.04 7.4a4.99 4.99 0 0 1 4.37-4.36 8.18 8.18 0 0 1-4.38 4.37M4.6 13.04c2.28.27 4.1 2.08 4.37 4.37a8.12 8.12 0 0 1-4.37-4.38Z"/></svg>

<svg xmlns="http://www.w3.org/2000/svg" id="mdi-underwear-outline" viewBox="0 0 24 24"><path d="M3 4C2.45 4 2 4.45 2 5V10C2 15.5 6.5 20 12 20C17.5 20 22 15.5 22 10V5C22 4.45 21.55 4 21 4H3M20 6V8H4V6H20M4 10H20C20 10.34 20 10.67 19.94 11C16.12 11.03 13.03 14.12 13 17.94C12.67 18 12.34 18 12 18C11.66 18 11.33 18 11 17.94C10.97 14.12 7.88 11.03 4.06 11C4 10.67 4 10.34 4 10M15.04 17.4C15.31 15.12 17.12 13.31 19.41 13.04C18.59 15 17 16.59 15.03 17.41M4.6 13.04C6.88 13.31 8.7 15.12 8.97 17.41C7 16.59 5.41 15 4.6 13.03Z" /></svg>
